!!!OTL: Falscher Sinn (3-39), S. 119
!!!id: P1011
**kern
*clefG2
*k[b-e-]
*g:
{8f
8f
=1
2b-
4b-
=2
2a
4a
=3
2g}
=4
{4g
=5
2f
4f
=6
2b-
4b-
=7
2dd
4cc
=8
16cc
[2dd
8.dd]}
=9
2r
=10
{8b-
8cc
=11
4.dd
8dd
4dd
=12
4ee-
4dd
4cc
=13
[2dd
8.dd]
16g
=14
2g}
4r
=15
{2.g
=16
2.a
=17
2a
4b-
=18
2cc}
=19
{4dd
=20
4b-
4a
4g
=21
2a
4a
=22
2g}
==
*-
!!!minrhy: 16
!!!meters: 3/4 ]  ZZ[5
!!!cut: Falscher Sinn (3-39), S. 119
!!!reg: Lothringen
!!!trd: PINCK, Louis: Verklingende Weisen, Bd3, Metz 1933
!!!rhy1: X_X_  X___X__  X___X__  X___
!!!rhy2: X__  X___X__  X___X__  X___X__  XX___^_.  0___
!!!key: P1011  16  G 3/4 ]  ZZ[5
!!!mod: HEPTATONIK AEOLISCH]  AMBITUS[7b
!!!kad: 15141
!!!akz: 3b21_-7b3b54_56b51_1224_3b21_
!!!fot: 'a__b__c__d__aw_
!!!for: 'a__aw_b__c__d__
!!!fok: '^a_/__^d_/__\__
!! PHRAS[VORWIEGEND AUFTAKTIG]
!!!fkt: Liebe, Werbung
!! LOTH VKL
!! PR[18] 2K[8] 2G[25] 3K[0] 3G[3] 4A[3] 4Ü[0] 5A[3] 6K[0] 6G[3]
!! 7K[0] 7G[0] 8A[0] MEHR[0] SI[43] ABS[40] SR[33] SP[10]
!! ST[16] 2k[5] 2g[25] 3k[3] 3g[3] 4d[3] 4ü[0] 5d[0] 6k[0] 6g[3]
!! 7k[0] 7g[0] 8d[0] mehr[0] si[40] dm[+3] sr[30] sp[10]
!! 1F[83] 2F[17] 3F[0] 4F[0] LF[0] 2P[0] 3P[0] 4P[0] TRI[0] DF[2] AB[41]
!! TF[0] U3K[0] U3[0] U4[0] U4Ü[0] U5[20] U6K[0] U6[5] U7K[0] U7[10]
!! N1[22] N2K[0] N2[29] N3K[0] N3[12] N4[2] N4Ü[0] N5[0] N6K[0] N6[0]
!!!n7k: 0] N7[0] O1[0] O2K[0] O2[0] O3K[0] O3[0] HÖ[0
